public/icons/admin/user.svg

<svg width="20" height="20" viewBox="0 0 20 20" fill="none" xmlns="http://www.w3.org/2000/svg">
<path id="Vector" d="M13.6845 1.45446C12.749 0.516515 11.4423 0 10 0C8.55004 0 7.23902 0.51339 6.30779 1.44553C5.36647 2.38793 4.90783 3.66873 5.01552 5.05176C5.22898 7.78031 7.46497 9.99994 10 9.99994C12.535 9.99994 14.7672 7.78076 14.984 5.05265C15.0931 3.68212 14.6316 2.404 13.6845 1.45446ZM18.4613 19.9999H1.53869C1.31719 20.0026 1.09783 19.9593 0.896579 19.8734C0.695324 19.7874 0.517233 19.6609 0.375265 19.503C0.0627733 19.1561 -0.0631848 18.6825 0.0300818 18.2035C0.43584 16.1133 1.70215 14.3575 3.69248 13.1249C5.4607 12.0307 7.70055 11.4285 10 11.4285C12.2995 11.4285 14.5393 12.0312 16.3075 13.1249C18.2979 14.3571 19.5642 16.1129 19.9699 18.203C20.0632 18.682 19.9372 19.1557 19.6247 19.5026C19.4828 19.6606 19.3047 19.7872 19.1035 19.8732C18.9022 19.9592 18.6828 20.0025 18.4613 19.9999Z" fill="white"/>
</svg>

<svg xmlns="http://www.w3.org/2000/svg" fill="none" viewBox="0 0 20 20"><path fill="#fff" d="M13.68 1.45A5.14 5.14 0 0 0 10 0C8.55 0 7.24.51 6.3 1.45a4.52 4.52 0 0 0-1.28 3.6C5.22 7.78 7.46 10 10 10c2.54 0 4.77-2.22 4.98-4.95a4.5 4.5 0 0 0-1.3-3.6ZM18.46 20H1.54c-.22 0-.44-.04-.64-.13a1.5 1.5 0 0 1-.87-1.67 7.64 7.64 0 0 1 3.66-5.08c1.77-1.09 4.01-1.7 6.31-1.7s4.54.61 6.3 1.7a7.64 7.64 0 0 1 3.67 5.08 1.5 1.5 0 0 1-.87 1.67c-.2.09-.42.13-.64.13Z"/></svg>
